packages/icons/src/aws-ectwo-service.svg

<svg width="24" height="24" viewBox="0 0 24 24" fill="none" xmlns="http://www.w3.org/2000/svg">
<g clip-path="url(#clip0_515_4983)">
<path d="M12.0475 1.02784C12.3981 1.19355 12.7524 1.35201 13.0985 1.5265C13.7831 1.87157 14.4605 2.23098 15.1459 2.57429C15.8697 2.93676 16.6008 3.28437 17.326 3.64393C18.1807 4.0677 19.0324 4.49759 19.8856 4.9243C20.2669 5.11495 20.6471 5.30763 21.0313 5.4923C21.1523 5.5505 21.202 5.62635 21.2019 5.76422C21.1985 9.99317 21.1988 14.2221 21.1983 18.4511C21.1983 18.4657 21.1954 18.4804 21.1906 18.5246C20.9047 18.6572 20.6019 18.7907 20.3056 18.9373C20.0068 19.0852 19.7169 19.2512 19.4189 19.4007C18.5393 19.842 17.6573 20.2784 16.7769 20.7179C15.9155 21.1479 15.0552 21.5798 14.1941 22.0102C13.4896 22.3623 12.7847 22.7135 12.0626 23.0425C12.0445 16.6816 12.0436 10.343 12.0433 4.0045C12.0433 3.01228 12.0461 2.02006 12.0475 1.02784Z" fill="#F68536"/>
<path d="M12.0306 1.02547C12.0461 2.02006 12.0433 3.01228 12.0434 4.0045C12.0436 10.343 12.0445 16.6816 12.0464 23.0405C11.9923 23.0483 11.9317 23.0461 11.8824 23.0214C11.3534 22.7559 10.8288 22.4816 10.2968 22.2223C10.1588 22.1551 10.1283 22.0665 10.1314 21.9274C10.1392 21.5808 10.1339 21.2339 10.1425 20.8516C10.1742 20.7196 10.217 20.6232 10.2173 20.5267C10.2215 19.0527 10.2202 17.5786 10.2202 16.1046C10.2202 11.9344 10.2209 7.76417 10.2166 3.59396C10.2165 3.477 10.1622 3.36011 10.1332 3.24319C10.1335 2.85971 10.1305 2.47618 10.1374 2.09282C10.1385 2.0301 10.1653 1.93351 10.2098 1.91106C10.808 1.60901 11.4115 1.31735 12.0306 1.02547Z" fill="#9D5025"/>
<path d="M10.1158 3.24365C10.1621 3.36011 10.2164 3.47701 10.2165 3.59396C10.2209 7.76417 10.2202 11.9344 10.2202 16.1046C10.2202 17.5786 10.2215 19.0527 10.2172 20.5267C10.2169 20.6232 10.1741 20.7196 10.1421 20.8309C9.81775 20.9588 9.50419 21.0774 9.18642 21.1834C8.97812 21.2528 8.76373 21.304 8.56238 21.3443C8.5908 21.2426 8.62474 21.1602 8.62477 21.0777C8.62689 14.958 8.62634 8.83838 8.62599 2.71872C9.08225 2.88532 9.53842 3.05215 9.99493 3.21806C10.0282 3.23015 10.0639 3.23558 10.1158 3.24365Z" fill="#F58436"/>
<path d="M8.60973 2.71624C8.62644 8.83838 8.62699 14.958 8.62487 21.0777C8.62484 21.1602 8.5909 21.2426 8.5554 21.3296C8.29975 21.2208 8.06063 21.1093 7.82365 20.9935C7.73824 20.9517 7.66303 20.8739 7.57447 20.8564C7.18442 20.7789 7.10519 20.5272 7.15252 20.1783C7.17224 20.033 7.155 19.8826 7.1676 19.705C7.19076 19.4587 7.20895 19.2421 7.2098 19.0253C7.21996 16.4291 7.23022 13.8328 7.23498 11.2366C7.23902 9.03942 7.23696 6.84224 7.23248 4.64509C7.23229 4.54836 7.18106 4.45173 7.1536 4.35505C7.15442 4.09063 7.14675 3.82573 7.16179 3.56213C7.16573 3.4929 7.22409 3.39701 7.28459 3.36554C7.71692 3.14071 8.15626 2.92938 8.60973 2.71624Z" fill="#9E5025"/>
<path d="M7.13587 4.35536C7.18098 4.45173 7.23221 4.54835 7.2324 4.64509C7.23688 6.84224 7.23894 9.03941 7.2349 11.2366C7.23014 13.8328 7.21988 16.4291 7.20972 19.0253C7.20887 19.2421 7.19068 19.4587 7.16572 19.6845C6.77958 19.81 6.40825 19.9264 6.01685 20.0209C5.99555 19.9397 5.99325 19.8805 5.99325 19.8213C5.99288 15.1044 5.99236 10.3874 5.99293 5.67052C5.99299 5.13011 5.99919 4.58971 6.00254 4.0493C6.37443 4.15143 6.74632 4.25355 7.13587 4.35536Z" fill="#F58536"/>
<path d="M5.98623 4.04737C5.99925 4.58971 5.99305 5.13011 5.99299 5.67052C5.99242 10.3874 5.99293 15.1044 5.9933 19.8213C5.99331 19.8805 5.99561 19.9397 5.9997 20.0193C5.75417 19.918 5.51654 19.7595 5.25493 19.6832C4.83763 19.5615 4.73371 19.2976 4.7994 18.9116C4.80551 18.8756 4.80004 18.8378 4.8085 18.7636C4.82698 18.6465 4.84555 18.5665 4.84558 18.4865C4.84699 14.1851 4.84712 9.88372 4.84471 5.58232C4.84466 5.49793 4.81272 5.41355 4.79566 5.32917C4.79718 5.19672 4.81632 5.06157 4.79646 4.93241C4.75842 4.68508 4.86852 4.56598 5.08811 4.47528C5.38975 4.3507 5.67665 4.19043 5.98623 4.04737Z" fill="#9F5125"/>
<path d="M4.77938 5.32333C4.81273 5.41355 4.84467 5.49793 4.84472 5.58232C4.84713 9.88372 4.84699 14.1851 4.84558 18.4865C4.84556 18.5665 4.82699 18.6465 4.8081 18.7431C4.50085 18.8178 4.20256 18.8759 3.88342 18.9146C3.86158 18.8509 3.85975 18.8065 3.85975 18.7622C3.85958 14.2798 3.85951 9.79735 3.85992 5.31494C3.85993 5.24854 3.86595 5.18215 3.86917 5.11575C4.16715 5.18299 4.46512 5.25024 4.77938 5.32333Z" fill="#F68536"/>
<path d="M3.85275 5.11382C3.86587 5.18215 3.85984 5.24855 3.85984 5.31494C3.85943 9.79735 3.8595 14.2798 3.85966 18.7622C3.85967 18.8065 3.8615 18.8509 3.86471 18.9162C3.5594 18.7983 3.24836 18.6662 2.94801 18.5131C2.90278 18.49 2.89186 18.3692 2.89145 18.2934C2.88741 17.5606 2.889 16.8277 2.889 16.0948C2.889 12.6674 2.8906 9.23994 2.88452 5.81251C2.8842 5.63073 2.93797 5.53493 3.10326 5.46518C3.35288 5.35983 3.59252 5.23084 3.85275 5.11382Z" fill="#9F5125"/>
</g>
<defs>
<clipPath id="clip0_515_4983">
<rect width="24" height="24" fill="white"/>
</clipPath>
</defs>
</svg>

<svg width="24" height="24" fill="none" xmlns="http://www.w3.org/2000/svg"><g clip-path="url(#a)"><path d="M12.047 1.028c.351.166.705.324 1.051.498.685.346 1.362.705 2.048 1.048.724.363 1.455.71 2.18 1.07.855.424 1.706.854 2.56 1.28.38.19.761.384 1.145.568.121.059.171.134.17.272-.003 4.23-.002 8.458-.003 12.687 0 .015-.003.03-.007.074-.286.132-.59.266-.885.412-.3.148-.59.314-.887.464-.88.441-1.762.877-2.642 1.317-.862.43-1.722.862-2.583 1.292-.704.352-1.41.703-2.131 1.032-.019-6.36-.02-12.699-.02-19.038 0-.992.003-1.984.005-2.976Z" fill="#F68536"/><path d="M12.03 1.025c.016.995.013 1.987.013 2.98l.003 19.036a.283.283 0 0 1-.164-.02c-.529-.265-1.053-.54-1.585-.799-.138-.067-.169-.155-.166-.295.008-.346.003-.693.011-1.075.032-.132.075-.229.075-.325.005-1.474.003-2.948.003-4.422 0-4.17 0-8.34-.003-12.511 0-.117-.055-.234-.084-.35 0-.384-.002-.768.004-1.151.002-.063.028-.16.073-.182a74.728 74.728 0 0 1 1.82-.886Z" fill="#9D5025"/><path d="M10.116 3.244c.046.116.1.233.1.35.005 4.17.004 8.34.004 12.51 0 1.475.002 2.949-.003 4.423 0 .096-.043.193-.075.304-.324.128-.638.246-.956.352-.208.07-.422.121-.624.161.029-.101.063-.184.063-.266.002-6.12.001-12.24.001-18.36l1.369.5c.033.012.069.018.12.026Z" fill="#F58436"/><path d="M8.61 2.716c.016 6.122.017 12.242.015 18.362 0 .082-.034.165-.07.252-.255-.11-.494-.22-.731-.336-.086-.042-.161-.12-.25-.138-.39-.077-.469-.329-.421-.678.02-.145.002-.295.015-.473.023-.246.04-.463.042-.68.01-2.596.02-5.192.025-7.788.004-2.198.002-4.395-.003-6.592 0-.097-.05-.193-.078-.29 0-.264-.007-.53.008-.793a.276.276 0 0 1 .123-.196c.432-.225.871-.437 1.325-.65Z" fill="#9E5025"/><path d="M7.136 4.355c.045.097.096.193.096.29.005 2.197.007 4.394.003 6.592-.005 2.596-.015 5.192-.025 7.788-.001.217-.02.434-.044.66-.386.125-.758.241-1.15.336a.723.723 0 0 1-.023-.2V5.671c0-.54.006-1.081.01-1.622.371.102.743.205 1.133.306Z" fill="#F58536"/><path d="M5.986 4.047c.013.543.007 1.083.007 1.624v14.15c0 .06.003.119.007.198-.246-.101-.483-.26-.745-.336-.417-.122-.521-.385-.456-.771.007-.036.001-.074.01-.148.018-.117.037-.197.037-.277.001-4.302.001-8.603-.001-12.905 0-.084-.032-.168-.05-.253.002-.132.021-.267.001-.397-.038-.247.073-.366.292-.457.302-.124.589-.285.898-.428Z" fill="#9F5125"/><path d="M4.78 5.323c.033.09.065.175.065.26.002 4.3.002 8.602 0 12.904 0 .08-.018.16-.037.256a7.855 7.855 0 0 1-.925.172.425.425 0 0 1-.023-.153V5.315c0-.066.006-.133.01-.2l.91.208Z" fill="#F68536"/><path d="M3.853 5.114c.013.068.007.135.007.2v13.448c0 .044.002.089.005.154a9.775 9.775 0 0 1-.917-.403c-.045-.023-.056-.144-.057-.22-.004-.732-.002-1.465-.002-2.198 0-3.428.002-6.855-.004-10.282 0-.182.053-.278.218-.348.25-.105.49-.234.75-.351Z" fill="#9F5125"/></g><defs><clipPath id="a"><path fill="#fff" d="M0 0h24v24H0z"/></clipPath></defs></svg>
